icon-themes/sifr_svg/cmd/lc_extrusiondirectionfloater.svg

<svg viewBox="0 0 24 24" xmlns="http://www.w3.org/2000/svg"><path d="m13 2-11 7v13h13l7-10v-10zm.262711 1h7.126061l-6.388772 6h-10zm7.737289.720339v7.88983l-6 8.389831v-9.647182zm-17 7.279661h9v9h-9z" fill="#555753"/></svg>

<svg xmlns="http://www.w3.org/2000/svg" viewBox="0 0 24 24">
  <path
     style="fill:#555753"
     d="M 13,2 2,9 V 22 H 15 L 22,12 V 2 Z m 0.262711,1 h 7.126061 L 14,9 H 4 Z M 21,3.720339 v 7.88983 L 15,20 V 10.352818 Z M 4,11 h 9 v 9 H 4 Z"
     />
</svg>
